X: 4385
M: C
L: 1/8
K: C
c2c>c c2e>d | cGEG c2c>d |\
e2e>e e2g>f | edcd e2e>f |\
g2g>g g_bag | f2f>f fagf |\
e>dc>d egfe | d2d>d d2 :|
(B>A) |\
(G>A)(G>A) (B>c)(B>c) | (d>e)(d>e) f2e>d |\
c>dc>d e>fe>f | g>ag>a _b2(ag) |\
af de/f/ ge cd/e/ | fedc cBAG |\



